X:1
T:Title
%%score { ( 1 3 ) | ( 2 4 ) }
L:1/8
Q:1/4=100
M:4/4
K:G
V:1 treble nm="Grand Piano"
V:3 treble 
V:2 bass 
V:4 bass 
V:1
 [B,D]2 [B,D][B,D] [B,G]3 [DB] | [Ed][Ec][CE][EG] [^DB]4 | [Ec]2 [DB][DA] [Dd]3 [EG] | %3
w: J.~Wesley~Hughes * * * *|||
 z4 A4[K:bass] | [B,D]2 [B,D][K:treble][B,D] [B,G]3 [DB] | [Ed][Ec][CE][EG] [^DB]4 | %6
w: |||
 [Ec]2 [DB][DA] [Dd]3 [EG] | [EB][EA][DG][DF] [B,DG]4 | %8
w: ||
[M:35/32] d2 e3/2-(3:2:6e3/4-e/8B3/4-B/8[Fd]3/4-[Fd]/8- [Fd]2- [Fd-]/4[F-A-d]/[FA]3/4 | %9
w: |
[M:4/4] (3:2:2[Fc]3 [Dd]3 B3- B/4 z/4 z/ | (3:2:2E4 [EB]2 z4 | %11
w: ||
 (9:8:8D-[D-f][D-e]3/2[D-^d] [D=d]cA3/2F | (3:2:2d4 B2 z4 | %13
w: ||
 (7:8:7[Ge]-[Ge]- [Ge]2- [Ge]/[EG]/[^DA][DG] | %14
w: |
[M:17/16] (7:8:12B2- B/-B/8-B/32G/-G/32 [Gd]2- [Gd-]/8[Fd]-[Fd]/16[CDF]- [CDF]/16 | %15
w: |
[M:4/4] [B,DG]6- [B,DG]/4 z/4 z/ z |] %16
w: |
V:2
 [G,,G,]2 [G,,G,][G,,G,] [G,,D,]3 [G,,G,] | [C,G,][C,G,][C,G,][C,E,] [B,,F,]4 | %2
 [A,,A,]2 [D,F,][C,F,] [B,,G,]3 [E,G,] | [A,,G,][A,,G,][A,,G,][A,,G,] [D,F,C]4 | %4
 [G,,G,]2 [G,,G,][G,,G,] [G,,D,]3 [G,,G,] | [C,G,][C,G,][C,G,][C,E,] [B,,F,]4 | %6
 [A,,A,]2 [D,F,][C,F,] [B,,G,]3 [E,G,] | [C,G,][C,C][D,B,][D,A,] [G,,G,]4 | %8
[M:35/32][K:treble] [G,B,G]2 [G,B,G]3/2-(3:2:6[G,B,G]3/4-[G,B,G]/8[G,G]3/4-[G,G]/8[K:bass][D,A,]3/4-[D,A,]/8- [D,A,]2- [D,A,]/4[D,A,]-[D,A,]/4 | %9
[M:4/4] (3:2:2[D,A,]3 [D,F,]3 G,3- G,/4 z/4 z/ | %10
 G,3- G,/4 z/4 z/ (5:4:5[A,,E,][A,,A,]3/2 [A,,A,]/-[A,,A,]3/2[A,,A,]/ | %11
 (9:8:8[D,F,]-[D,-F,-Ac][D,-F,-Ac]3/2[D,-F,-Ac] [D,F,Ac]CA,3/2[K:bass]F, | %12
 (3:2:2G,4 [G,DG]2 z4[K:bass] | (7:8:7[C,C]-[C,C]- [C,C]2- [C,C]/[C,C]/[C,C][C,G,] | %14
[M:17/16] (7:8:12[D,G,D]2- [D,G,D]/-[D,G,D]/8-[D,G,D]/32[D,B,]/-[D,B,]/32 [D,B,]2- [D,B,]/8A,-A,/16D,- D,/16 | %15
[M:4/4] G,,6- G,,/4 z/4 z/ z |] %16
V:3
 x8 | x8 | x8 | [^CB][CA][CA][CB] z[K:bass] C,A,,F,, | x3[K:treble] x5 | x8 | x8 | x8 | %8
[M:35/32] x35/4 |[M:4/4] z4 (3:2:2D4 [GB]2 | %10
 ^c3- c/4 z/4 z/ (5:4:5[^CA][CE]3/2 [CG]/-[CG]3/2[CF]/ | x511/64 | z4 (5:4:4AG3/2FG3/2 | x8 | %14
[M:17/16] x8 |[M:4/4] x8 |] %16
V:4
 x8 | x8 | x8 | x8 | x8 | x8 | x8 | x8 |[M:35/32][K:treble] x14/3[K:bass] x49/12 | %9
[M:4/4] z4 (3:2:2G,,4 [G,,G,]2 | (3:2:2A,,4 [A,,G,]2 z4 | x277/48[K:bass] x2 | %12
 [B,G]3- [B,G]/4 z/4 z/ (5:4:4[G,CD][G,B,D]3/2[K:bass][A,CD][G,B,]3/2 | x8 |[M:17/16] x8 | %15
[M:4/4] x8 |] %16

